iu/bitwarden.svg

<svg viewBox="0 0 1024 1024" xmlns="http://www.w3.org/2000/svg" xml:space="preserve" style="fill-rule:evenodd;clip-rule:evenodd;stroke-linejoin:round;stroke-miterlimit:1.41421" height="1em" width="1em">
  <path d="M1024 864c0 88.364-71.635 160-160 160H160C71.635 1024 0 952.364 0 864V160C0 71.636 71.635 0 160 0h704c88.365 0 160 71.636 160 160v704Z" style="fill:#005ce4;fill-rule:nonzero"/>
  <path d="M741.416 549.845v-327.11H512.449v581.13c40.542-21.465 76.831-44.807 108.864-70.021 80.07-62.699 120.103-124.031 120.103-183.999Zm98.133-392.532v392.531c0 29.3-5.7 58.348-17.118 87.145-11.413 28.793-25.558 54.35-42.421 76.667-16.866 22.312-36.967 44.036-60.313 65.167-23.332 21.123-44.896 38.672-64.654 52.646-19.763 13.968-40.376 27.167-61.845 39.609-21.462 12.438-36.713 20.868-45.738 25.296-9.035 4.427-16.272 7.84-21.727 10.227-4.087 2.041-8.52 3.066-13.284 3.066-4.771 0-9.199-1.025-13.292-3.066-5.453-2.387-12.693-5.8-21.724-10.227-9.026-4.428-24.276-12.857-45.745-25.296-21.465-12.442-42.081-25.642-61.842-39.609-19.762-13.974-41.321-31.522-64.655-52.646-23.342-21.131-43.444-42.855-60.314-65.167-16.865-22.317-31.007-47.874-42.42-76.667-11.417-28.797-17.123-57.845-17.123-87.145V157.313c0-8.86 3.239-16.527 9.71-23 6.478-6.475 14.144-9.715 23-9.715h588.8c8.857 0 16.527 3.24 23 9.715 6.474 6.473 9.705 14.14 9.705 23Z" style="fill:#fff;fill-rule:nonzero"/>
</svg>

<svg viewBox="0 0 1024 1024" version="1.1" xmlns="http://www.w3.org/2000/svg" xml:space="preserve" style="fill-rule:evenodd;clip-rule:evenodd;stroke-linejoin:round;stroke-miterlimit:1.41421" height="1em" width="1em">
  <path d="M1024,864C1024,952.364 952.365,1024 864,1024L160,1024C71.635,1024 0,952.364 0,864L0,160C0,71.636 71.635,0 160,0L864,0C952.365,0 1024,71.636 1024,160L1024,864Z" style="fill:rgb(0,92,228);fill-rule:nonzero"/>
  <path d="M741.416,549.845L741.416,222.735L512.449,222.735L512.449,803.865C552.991,782.4 589.28,759.058 621.313,733.844C701.383,671.145 741.416,609.813 741.416,549.845L741.416,549.845ZM839.549,157.313L839.549,549.844C839.549,579.144 833.849,608.192 822.431,636.989C811.018,665.782 796.873,691.339 780.01,713.656C763.144,735.968 743.043,757.692 719.697,778.823C696.365,799.946 674.801,817.495 655.043,831.469C635.28,845.437 614.667,858.636 593.198,871.078C571.736,883.516 556.485,891.946 547.46,896.374C538.425,900.801 531.188,904.214 525.733,906.601C521.646,908.642 517.213,909.667 512.449,909.667C507.678,909.667 503.25,908.642 499.157,906.601C493.704,904.214 486.464,900.801 477.433,896.374C468.407,891.946 453.157,883.517 431.688,871.078C410.223,858.636 389.607,845.436 369.846,831.469C350.084,817.495 328.525,799.947 305.191,778.823C281.849,757.692 261.747,735.968 244.877,713.656C228.012,691.339 213.87,665.782 202.457,636.989C191.04,608.192 185.334,579.144 185.334,549.844L185.334,157.313C185.334,148.453 188.573,140.786 195.044,134.313C201.522,127.838 209.188,124.598 218.044,124.598L806.844,124.598C815.701,124.598 823.371,127.838 829.844,134.313C836.318,140.786 839.549,148.453 839.549,157.313L839.549,157.313Z" style="fill:white;fill-rule:nonzero"/>
</svg>
